svgs/sharp-solid/square-arrow-down-left.svg

<svg xmlns="http://www.w3.org/2000/svg" viewBox="0 0 448 512"><!--! Font Awesome Pro 6.6.0 by @fontawesome - https://fontawesome.com License - https://fontawesome.com/license (Commercial License) Copyright 2024 Fonticons, Inc. --><path d="M448 480L0 480 0 32l448 0 0 448zM136 368l152 0 24 0 0-48-24 0-94.1 0L329 185l17-17L312 134.1l-17 17-135 135L160 184l0-24-48 0 0 24 0 160 0 24 24 0z"/></svg>

<svg xmlns="http://www.w3.org/2000/svg" viewBox="0 0 448 512"><!--! Font Awesome Pro 6.4.0 by @fontawesome - https://fontawesome.com License - https://fontawesome.com/license (Commercial License) Copyright 2023 Fonticons, Inc. --><path d="M448 480H0V32H448V480zM136 368H288h24V320H288 193.9L329 185l17-17L312 134.1l-17 17-135 135V184 160H112v24V344v24h24z"/></svg>
